assets/images/wenduji.svg

<svg xmlns="http://www.w3.org/2000/svg" preserveAspectRatio="xMidYMid" width="116" height="116" viewBox="0 0 116 116"><defs><style>.cls-1,.cls-2{fill:#fff}.cls-1{stroke:#fff;stroke-linejoin:round;stroke-width:3px;opacity:.9;fill-opacity:.2}.cls-2{fill-rule:evenodd}</style></defs><circle cx="58.047" cy="57.75" r="54.047" class="cls-1"/><path d="M56.891 83.562c-7.689 0-13.922-6.233-13.922-13.921 0-5.937 3.723-10.992 8.956-12.994v-24.23c0-3.027 2.016-5.481 5.043-5.481h.102c3.027 0 5.044 2.454 5.044 5.481v4.739h-1.946a1.949 1.949 0 0 0-1.949 1.949v.008c0 1.077.872 1.949 1.949 1.949h1.946v4.969h-1.946a1.949 1.949 0 0 0-1.949 1.949v.008a1.95 1.95 0 0 0 1.949 1.95h1.946v6.803c5.098 2.067 8.699 7.059 8.699 12.9 0 7.688-6.234 13.921-13.922 13.921z" class="cls-2"/></svg>

<svg xmlns="http://www.w3.org/2000/svg" xmlns:xlink="http://www.w3.org/1999/xlink" preserveAspectRatio="xMidYMid" width="116" height="116" viewBox="0 0 116 116">
  <defs>
    <style>
      .cls-1, .cls-2 {
        fill: #fff;
      }

      .cls-1 {
        stroke: #fff;
        stroke-linejoin: round;
        stroke-width: 3px;
        opacity: 0.9;
        fill-opacity: 0.2;
      }

      .cls-2 {
        fill-rule: evenodd;
      }
    </style>
  </defs>
  <g>
    <circle cx="58.047" cy="57.75" r="54.047" class="cls-1"/>
    <path d="M56.891,83.562 C49.202,83.562 42.969,77.329 42.969,69.641 C42.969,63.704 46.692,58.649 51.925,56.647 L51.925,32.417 C51.925,29.390 53.941,26.936 56.968,26.936 L57.070,26.936 C60.097,26.936 62.114,29.390 62.114,32.417 L62.114,37.156 L60.168,37.156 C59.091,37.156 58.219,38.029 58.219,39.105 L58.219,39.113 C58.219,40.190 59.091,41.062 60.168,41.062 L62.114,41.062 L62.114,46.031 L60.168,46.031 C59.091,46.031 58.219,46.904 58.219,47.980 L58.219,47.988 C58.219,49.065 59.091,49.938 60.168,49.938 L62.114,49.938 L62.114,56.741 C67.212,58.808 70.813,63.800 70.813,69.641 C70.813,77.329 64.579,83.562 56.891,83.562 Z" class="cls-2"/>
  </g>
</svg>
